X:1
T:Title
%%score ( 1 2 3 ) 4
L:1/8
Q:1/4=115
M:4/4
K:F
V:1 treble nm="Grand Piano, Staff 1"
V:2 treble 
V:3 treble 
V:4 bass nm="Choir Pad, Celestial Voices, 83.83"
V:1
 [CA]3 [CA] [CG]2 [CA]2 | [B,B]2 [CA]2 D2 [CE]2 | [CF]4 [=B,A]4 | [CG]8 | [CA]3 [CA] [DB]2 [_Ec]2 | %5
w: By~Richard~Francis~Lloyd * * *|||||
 [_Ec]2 [DB]2 [A,F]2 [=B,G]2 | A6 z2 | [A,F]8 |] %8
w: |||
V:2
 x8 | x8 | x8 | x8 | x8 | x8 | C4 z2 G2 | x8 |] %8
V:3
 x8 | x8 | x8 | x8 | x8 | x8 | z4 B,4 | x8 |] %8
V:4
 F,3 F, [E,G,]2 F,2 | [D,F,]2 [C,F,]2 [B,,F,]2 [B,,G,]2 | [A,,F,]4 [G,,F,]4 | [C,E,]8 | %4
 F,3 F, F,2 [A,,F,]2 | [B,,F,]2 [B,,F,]2 [D,F,]2 [D,F,]2 | [C,F,]4 [C,E,]4 | [F,,F,]8 |] %8

